X: 275
T:The Wee Man from Skye
C:P.M. Donald McLeod
G:march
M:2/4
L:1/16
Q:1/4=84
K:AMix
B<d|e2ed deed  |Beed   B2A2 |GGGB G2B2  |GBBd   B2d2|
    e2ed deed  |Beed   B2A<G|AAAB e2d<B |A4     A2 :|
B<d|e2g2 a2ef  |gfed   B2A2 |GGGB G2B2  |GBBd   B2d2|
[1  efge a2a2  |gfed   B2A<G|AAAB e2d>B |A4     A2 :|
[2  e2ed deed  |Beed   B2A<G|AAAB e2d>B |A4     A2 ||
B<d|e2A2 A2Bd  |e<ge>d B2AB |dGG2 B<AB<G|B<dG>d B2d2|
    eAA2 B<AB<d|egde   B2A<G|AAAB e2d>B |A4     A2 :|
B<d|e2ed e2ef  |gfeg   B2A2 |GGGB G2B2  |GBBd   B2d2|
[1  e2ed e2ef  |gfed   B2A<G|AAAB e2d>B |A4     A2 :|
[2  eAA2 B<AB<d|egde   B2A<G|AAAB e2d>B |A4     A2 |]

The pipe march "The Conundrum" is more complex, progressively filling in
gaps from one section to the next.  The first part omits both G and D,
fitting the mixolydian/major/lydian pentatonic scale.  The second part fills
in one gap, inconspicuously adding a few Gs to make the tune major/lydian
hexatonic.  The third part makes them slightly more noticeable.  The last
part adds Ds as well; the tune only becomes unambiguously in the major mode
near the end.

